static/images/past-sponsors/jetbrains.svg

<svg fill="none" height="60" viewBox="0 0 301 60" width="301" xmlns="http://www.w3.org/2000/svg" xmlns:xlink="http://www.w3.org/1999/xlink"><linearGradient id="a" gradientUnits="userSpaceOnUse" x1="32.2936" x2="81.5219" y1="54.7781" y2="6.23522"><stop offset="0" stop-color="#ff9419"/><stop offset=".43" stop-color="#ff021d"/><stop offset=".99" stop-color="#e600ff"/></linearGradient><mask id="b" height="57" maskUnits="userSpaceOnUse" width="261" x="20" y="2"><path d="m280.376 2.3761h-260v55.8389h260z" fill="#fff"/></mask><g mask="url(#b)"><path d="m100.54 37.138c0 .6742-.142 1.2695-.427 1.7931-.2746.5148-.6941.9373-1.2073 1.2146-.5232.2853-1.111.4288-1.785.4288h-3.3416v4.8646h4.0477c1.524 0 2.8892-.3411 4.1032-1.0241 1.192-.6627 2.18-1.6399 2.857-2.8252.69-1.1978 1.04-2.5471 1.04-4.0549v-15.9918h-5.287zm14.231-1.4529h11.071v-4.4678h-11.071v-5.071h12.237v-4.6032h-17.388v23.888h17.729v-4.6032h-12.578zm14.238-9.4041h7.078v19.143h5.287v-19.143h7.046v-4.7379h-19.419v4.7458zm37.475 7.1742c-.424-.2222-.871-.3952-1.334-.5156.35-.0983.69-.2285 1.016-.3889.873-.4527 1.564-1.0871 2.055-1.9048.493-.8177.747-1.7533.747-2.8172 0-1.2146-.333-2.3017-.992-3.262-.659-.9524-1.587-1.6983-2.778-2.2379-1.191-.5315-2.555-.8017-4.079-.8017h-10.611v23.8881h10.818c1.602 0 3.031-.2773 4.293-.8408 1.253-.5635 2.23-1.3413 2.929-2.3494.689-1.0002 1.039-2.1431 1.039-3.4286 0-1.1826-.27-2.2378-.818-3.1742-.536-.9273-1.326-1.6819-2.278-2.175zm-10.841-7.9042h4.69c.651 0 1.222.1195 1.723.349.478.212.884.5597 1.166 1.0002.278.428.42.9365.42 1.5158 0 .5795-.142 1.127-.42 1.5788-.278.4527-.667.7938-1.166 1.0401-.501.2462-1.072.365-1.723.365h-4.69v-5.8577.008zm8.079 14.4521c-.302.4518-.73.8017-1.277 1.0471-.556.2463-1.184.3651-1.905.3651h-4.897v-6.1262h4.897c.706 0 1.333.1346 1.888.396.548.2622.985.6272 1.286 1.1038.301.4758.461 1.0154.461 1.6266 0 .6113-.152 1.1349-.453 1.5876zm23.587-4.2303c1.325-.6352 2.348-1.5318 3.079-2.6826.73-1.1508 1.095-2.4841 1.095-4.0079s-.357-2.8093-1.071-3.9521c-.715-1.1429-1.73-2.0243-3.04-2.6507-1.31-.6272-2.826-.9364-4.556-.9364h-10.459v23.888h5.293v-8.698h3.445l4.848 8.698h6.04l-5.46-9.3403c.27-.0957.539-.1992.793-.318zm-1.715-4.8806c-.293.5028-.734.9042-1.261 1.1508-.549.2694-1.191.4041-1.929.4041h-4.762v-6.6108h4.762c.738 0 1.38.1355 1.929.3969.526.2461.965.6442 1.261 1.1428.294.4925.445 1.0799.445 1.7454 0 .667-.151 1.2543-.445 1.7548zm16.413-9.3491-8.532 23.888h5.373l1.691-5.2695h8.857l1.809 5.2695h5.269l-8.738-23.888zm-.27 14.6186 2.746-8.4287.325-1.5317.325 1.5317 2.938 8.4287zm16.491 9.2694h5.46v-23.888h-5.46zm24.722-7.7305-10.277-16.1575h-5.151v23.888h4.826v-16.1583l10.221 16.1583h5.207v-23.888h-4.826zm25.127-2.6738c-.516-.9922-1.247-1.825-2.175-2.5-.928-.6743-2-1.119-3.206-1.3493l-4.063-.8328c-.635-.1514-1.143-.4128-1.516-.7938-.374-.3809-.565-.8575-.565-1.421 0-.5156.136-.9603.413-1.3412.271-.381.659-.6743 1.151-.8887.493-.2143 1.064-.3171 1.715-.3171s1.238.1107 1.738.3331c.499.2223.888.5316 1.166.9364.279.4049.421.8567.421 1.3732h5.294c-.032-1.3892-.421-2.6196-1.151-3.6828-.73-1.0711-1.754-1.9047-3.055-2.508-1.302-.6033-2.794-.9046-4.461-.9046s-3.143.3092-4.436.9365c-1.294.6272-2.31 1.4919-3.032 2.6029-.722 1.1117-1.087 2.3733-1.087 3.7934 0 1.1509.23 2.1909.698 3.1114.46.9195 1.139 1.7124 1.976 2.3096.857.6112 1.842 1.0392 2.969 1.2775l4.301.8886c.706.1674 1.262.4766 1.675.9213.412.4439.611.9914.611 1.6577 0 .5324-.151 1.0169-.452 1.4369-.302.4208-.723.746-1.263.9763-.539.2303-1.174.3411-1.904.3411s-1.421-.1268-2.016-.381c-.595-.2534-1.056-.6184-1.381-1.095-.333-.4678-.492-1.0161-.492-1.6266h-5.293c.023 1.4919.42 2.8013 1.206 3.9442.777 1.1349 1.849 2.0243 3.214 2.6586 1.365.6352 2.928.9524 4.691.9524 1.761 0 3.348-.3252 4.714-.9763 1.373-.6503 2.436-1.5477 3.206-2.6905s1.151-2.4363 1.151-3.8812c0-1.1819-.262-2.269-.778-3.2691z" fill="#000"/><path d="m47.8264 7.7096-13.2933 13.2933c-1.8678 1.8688-2.917 4.403-2.9169 7.0452v23.7653c0 2.1996 1.7852 3.9848 3.9848 3.9848h23.7654c2.6459 0 5.1722-1.052 7.0451-2.9169l13.2933-13.2933c1.8649-1.8649 2.9169-4.3992 2.9169-7.0451v-23.76537c0-2.19961-1.7852-3.98481-3.9848-3.98481h-23.7654c-2.6459 0-5.1722 1.05199-7.0451 2.91688z" fill="url(#a)"/><path d="m69.8704 17.5439h-31.8785v31.8785h31.8785z" fill="#000"/><path d="m55.5249 42.2498h-13.5483v3.1878h13.5483z" fill="#fff"/></g></svg>

<svg width="301" height="60" viewBox="0 0 301 60" fill="none" xmlns="http://www.w3.org/2000/svg">
<mask id="mask0_1000_9525" style="mask-type:luminance" maskUnits="userSpaceOnUse" x="20" y="2" width="261" height="57">
<path d="M280.376 2.3761H20.376V58.215H280.376V2.3761Z" fill="white"/>
</mask>
<g mask="url(#mask0_1000_9525)">
<path d="M100.54 37.138C100.54 37.8122 100.398 38.4075 100.113 38.9311C99.8384 39.4459 99.4189 39.8684 98.9057 40.1457C98.3825 40.431 97.7947 40.5745 97.1207 40.5745H93.7791V45.4391H97.8268C99.3508 45.4391 100.716 45.098 101.93 44.415C103.122 43.7523 104.11 42.7751 104.787 41.5898C105.477 40.392 105.827 39.0427 105.827 37.5349V21.5431H100.54V37.138ZM114.771 35.6851H125.842V31.2173H114.771V26.1463H127.008V21.5431H109.62V45.4311H127.349V40.8279H114.771V35.6851ZM129.009 26.281H136.087V45.424H141.374V26.281H148.42V21.5431H129.001V26.2889L129.009 26.281ZM166.484 33.4552C166.06 33.233 165.613 33.06 165.15 32.9396C165.5 32.8413 165.84 32.7111 166.166 32.5507C167.039 32.098 167.73 31.4636 168.221 30.6459C168.714 29.8282 168.968 28.8926 168.968 27.8287C168.968 26.6141 168.635 25.527 167.976 24.5667C167.317 23.6143 166.389 22.8684 165.198 22.3288C164.007 21.7973 162.643 21.5271 161.119 21.5271H150.508V45.4152H161.326C162.928 45.4152 164.357 45.1379 165.619 44.5744C166.872 44.0109 167.849 43.2331 168.548 42.225C169.237 41.2248 169.587 40.0819 169.587 38.7964C169.587 37.6138 169.317 36.5586 168.769 35.6222C168.233 34.6949 167.443 33.9403 166.491 33.4472L166.484 33.4552ZM155.643 25.551H160.333C160.984 25.551 161.555 25.6705 162.056 25.9C162.534 26.112 162.94 26.4597 163.222 26.9002C163.5 27.3282 163.642 27.8367 163.642 28.416C163.642 28.9955 163.5 29.543 163.222 29.9948C162.944 30.4475 162.555 30.7886 162.056 31.0349C161.555 31.2811 160.984 31.3999 160.333 31.3999H155.643V25.5422V25.5502V25.551ZM163.722 40.0031C163.42 40.4549 162.992 40.8048 162.445 41.0502C161.889 41.2965 161.261 41.4153 160.54 41.4153H155.643V35.2891H160.54C161.246 35.2891 161.873 35.4237 162.428 35.6851C162.976 35.9473 163.413 36.3123 163.714 36.7889C164.015 37.2647 164.175 37.8043 164.175 38.4155C164.175 39.0268 164.023 39.5504 163.722 40.0031ZM187.309 35.7728C188.634 35.1376 189.657 34.241 190.388 33.0902C191.118 31.9394 191.483 30.6061 191.483 29.0823C191.483 27.5585 191.126 26.273 190.412 25.1302C189.697 23.9873 188.682 23.1059 187.372 22.4795C186.062 21.8523 184.546 21.5431 182.816 21.5431H172.357V45.4311H177.65V36.7331H181.095L185.943 45.4311H191.983L186.523 36.0908C186.793 35.9951 187.062 35.8916 187.316 35.7728H187.309ZM185.594 30.8922C185.301 31.395 184.86 31.7964 184.333 32.043C183.784 32.3124 183.142 32.4471 182.404 32.4471H177.642V25.8363H182.404C183.142 25.8363 183.784 25.9718 184.333 26.2332C184.859 26.4793 185.298 26.8774 185.594 27.376C185.888 27.8685 186.039 28.4559 186.039 29.1214C186.039 29.7884 185.888 30.3757 185.594 30.8762V30.8922ZM202.007 21.5431L193.475 45.4311H198.848L200.539 40.1616H209.396L211.205 45.4311H216.474L207.736 21.5431H202.007ZM201.737 36.1617L204.483 27.733L204.808 26.2013L205.133 27.733L208.071 36.1617H201.737ZM218.228 45.4311H223.688V21.5431H218.228V45.4311ZM242.95 37.7006L232.673 21.5431H227.522V45.4311H232.348V29.2728L242.569 45.4311H247.776V21.5431H242.95V37.7006ZM268.077 35.0268C267.561 34.0346 266.83 33.2018 265.902 32.5268C264.974 31.8525 263.902 31.4078 262.696 31.1775L258.633 30.3447C257.998 30.1933 257.49 29.9319 257.117 29.5509C256.743 29.17 256.552 28.6934 256.552 28.1299C256.552 27.6143 256.688 27.1696 256.965 26.7887C257.236 26.4077 257.624 26.1144 258.116 25.9C258.609 25.6857 259.18 25.5829 259.831 25.5829C260.482 25.5829 261.069 25.6936 261.569 25.916C262.068 26.1383 262.457 26.4476 262.735 26.8524C263.014 27.2573 263.156 27.7091 263.156 28.2256H268.45C268.418 26.8364 268.029 25.606 267.299 24.5428C266.569 23.4717 265.545 22.6381 264.244 22.0348C262.942 21.4315 261.45 21.1302 259.783 21.1302C258.116 21.1302 256.64 21.4394 255.347 22.0667C254.053 22.6939 253.037 23.5586 252.315 24.6696C251.593 25.7813 251.228 27.0429 251.228 28.463C251.228 29.6139 251.458 30.6539 251.926 31.5744C252.386 32.4939 253.065 33.2868 253.902 33.884C254.759 34.4952 255.744 34.9232 256.871 35.1615L261.172 36.0501C261.878 36.2175 262.434 36.5267 262.847 36.9714C263.259 37.4153 263.458 37.9628 263.458 38.6291C263.458 39.1615 263.307 39.646 263.006 40.066C262.704 40.4868 262.283 40.812 261.743 41.0423C261.204 41.2726 260.569 41.3834 259.839 41.3834C259.109 41.3834 258.418 41.2566 257.823 41.0024C257.228 40.749 256.767 40.384 256.442 39.9074C256.109 39.4396 255.95 38.8913 255.95 38.2808H250.657C250.68 39.7727 251.077 41.0821 251.863 42.225C252.64 43.3599 253.712 44.2493 255.077 44.8836C256.442 45.5188 258.005 45.836 259.768 45.836C261.529 45.836 263.116 45.5108 264.482 44.8597C265.855 44.2094 266.918 43.312 267.688 42.1692C268.458 41.0264 268.839 39.7329 268.839 38.288C268.839 37.1061 268.577 36.019 268.061 35.0189L268.077 35.0268Z" fill="black"/>
<path d="M47.8264 7.7096L34.5331 21.0029C32.6653 22.8717 31.6161 25.4059 31.6162 28.0481V51.8134C31.6162 54.013 33.4014 55.7982 35.601 55.7982H59.3664C62.0123 55.7982 64.5386 54.7462 66.4115 52.8813L79.7048 39.588C81.5697 37.7231 82.6217 35.1888 82.6217 32.5429V8.77753C82.6217 6.57792 80.8365 4.79272 78.6369 4.79272H54.8715C52.2256 4.79272 49.6993 5.84471 47.8264 7.7096Z" fill="url(#paint0_linear_1000_9525)"/>
<path d="M69.8704 17.5439H37.9919V49.4224H69.8704V17.5439Z" fill="black"/>
<path d="M55.5249 42.2498H41.9766V45.4376H55.5249V42.2498Z" fill="white"/>
</g>
<defs>
<linearGradient id="paint0_linear_1000_9525" x1="32.2936" y1="54.7781" x2="81.5219" y2="6.23522" gradientUnits="userSpaceOnUse">
<stop stop-color="#FF9419"/>
<stop offset="0.43" stop-color="#FF021D"/>
<stop offset="0.99" stop-color="#E600FF"/>
</linearGradient>
</defs>
</svg>
